src/img/salario.svg

<svg width="36" height="38" viewBox="0 0 36 38" fill="none" xmlns="http://www.w3.org/2000/svg">
<path d="M13.5605 35.2715L14.5859 37.4863L1.91211 32.8926C1.44727 32.7285 1.10547 32.4277 0.886719 31.9902C0.695312 31.5527 0.681641 31.1016 0.845703 30.6367L5.48047 17.9219L6.50586 20.1777L2.48633 31.2109L13.5605 35.2715ZM4.41406 9.14453L16.5137 35.0664V30.9238L6.01367 8.40625L16.5137 3.52539V1.59766L5.27539 6.84766C4.83789 7.03906 4.53711 7.36719 4.37305 7.83203C4.20898 8.26953 4.22266 8.70703 4.41406 9.14453ZM35.75 2.5V35.7637C35.75 36.2285 35.5723 36.625 35.2168 36.9531C34.8887 37.3086 34.4785 37.4863 33.9863 37.4863H20C19.5078 37.4863 19.084 37.3086 18.7285 36.9531C18.4004 36.625 18.2363 36.2285 18.2363 35.7637V2.5C18.2363 2.00781 18.4004 1.59766 18.7285 1.26953C19.084 0.914063 19.5078 0.736328 20 0.736328H33.9863C34.4785 0.736328 34.8887 0.914063 35.2168 1.26953C35.5723 1.59766 35.75 2.00781 35.75 2.5ZM33.9863 2.5H20V35.7637H33.9863V2.5Z" fill="#56504C"/>
</svg>

<svg width="36" height="38" fill="none" xmlns="http://www.w3.org/2000/svg"><path d="M13.56 35.272l1.026 2.214-12.674-4.593a1.76 1.76 0 01-1.025-.903 1.783 1.783 0 01-.041-1.353L5.48 17.922l1.026 2.256-4.02 11.033 11.074 4.06zM4.414 9.145l12.1 25.921v-4.142L6.014 8.406l10.5-4.88V1.597L5.275 6.848a1.61 1.61 0 00-.902.984c-.164.438-.15.875.041 1.313zM35.75 2.5v33.264c0 .464-.178.861-.533 1.19a1.605 1.605 0 01-1.23.532H20c-.492 0-.916-.177-1.271-.533a1.62 1.62 0 01-.493-1.19V2.5c0-.492.164-.902.492-1.23.356-.356.78-.534 1.272-.534h13.986c.492 0 .903.178 1.23.534.356.328.534.738.534 1.23zm-1.764 0H20v33.264h13.986V2.5z" fill="#56504C"/></svg>
